X:WFS 13-07 12
T:Paddy Carey's
S:Walthamstow session 2013-07-09
Z:<djl@colourcountry.net>
M:6/8
K:G
P:A
D2G GFG B2G GFG |1,3 E2A A2B cBA GFE :|2,4 FED DEF GAB A2G :|
P:B
G2B c2e d2e dBG |1,3 G2B c2e dBG A3 :|2,4 G2G BAG FEF G3 :|
P:C
c2A AGA B2G G2G |1,3 F2G A2B c2A F2D :|2,4 FED DEF GAB A2G :|

